!!!OTL@@DE: Oberschw&auml;bischer L&auml;ndler
!!!COM: Neueres Volkslied
!!!ODT: 1837
!!!OMD: M&auml;ssig bewegt
!!!OCL: Erk, Ludwig
!!!GCO: Deutscher Liederschatz, Band 1
**kern	**kern	**kern
*staff3	*staff2	*staff1
*Ipiano	*Ipiano	*Ivox
*>[A,B,B1,B,B2]	*>[A,B,B1,B,B2]	*>[A,B,B1,B,B2]
*>norep[A,B,B2]	*>norep[A,B,B2]	*>norep[A,B,B2]
*>A	*>A	*>A
=1-	=1-	=1-
*clefF4	*clefG2	*clefG2
*k[]	*k[]	*k[]
*C:	*C:	*C:
*M3/4	*M3/4	*M3/4
*MM120	*MM120	*MM120
4C/	8r	4.ee\
.	(8G/	.
4r	4c/) 4e/	.
.	.	8dd\
4r	4G/ 4c/ 4e/	8cc/L
.	.	8e/J
=2	=2	=2
4GG/	8r	4a/
.	(8G/L	.
4r	8B/ 8f/	8g/L
.	8G/J	8f/J
4r	4B/) 4f/	4d/
=3	=3	=3
4GG/	8r	4a/
.	(8G/L	.
4r	8B/ 8f/	8g/L
.	8G/J	8f/J
4r	4B/) 4f/	4d/
=4	=4	=4
4C/	8r	4a/
.	(8G/L	.
4r	8c/ 8e/	8g/L
.	8G/J	8e/J
4r	4c/) 4e/	4c/
=5	=5	=5
4C/	8r	4.ee\
.	(8G/	.
4r	4c/) 4e/	.
.	.	8dd\
4r	4G/ 4c/ 4e/	8cc/L
.	.	8e/J
=6	=6	=6
4GG/	8r	4a/
.	(8G/L	.
4r	8B/ 8f/	8g/L
.	8G/J	8f/J
4r	4G/) 4f/	4d/
=7	=7	=7
4GG/	8r	4g/
.	(8G/L	.
4r	8B/ 8f/	4a/
.	8G/	.
4r	8d/ 8f/	4b\
.	8G/J)	.
=8	=8	=8
4C/	8c/ 8e/L	2cc\
.	8G/	.
4r	8c/	.
.	8G/J	.
8E'/L	4r	4r
8C/J	.	.
=9	=9	=9
4GG/	4r	8ff'\
.	.	8ee'\
4r	8G/ 8B/ 8f/L	2dd^\
.	8G/ 8B/ 8f/J	.
4r	4G/ 4B/ 4f/	.
=10	=10	=10
4CC/ 4C/	4r	8ee'\
.	.	8dd'\
4r	8G/ 8c/ 8e/L	2cc^\
.	8G/ 8c/ 8e/J	.
4r	4G/ 4c/ 4e/	.
=11	=11	=11
4GG/	4G/ 4B/ 4f/	4g/
4GG/	4G/ 4c/ 4f/	4a/
4GG/	4G/ 4d/ 4f/	4b\
=12	=12	=12
4C/	4G/ 4c/ 4e/	8cc\
.	.	8b\
4C/	4G/ 4c/ 4e/	8cc\
.	.	8dd\
4C/	4G/ 4c/ 4e/	4ee\
=13	=13	=13
4GG/	4r	8ff'\
.	.	8ee'\
4r	8G/ 8B/ 8f/L	2dd^\
.	8G/ 8B/ 8f/J	.
4r	4G/ 4B/ 4f/	.
=14	=14	=14
4CC/ 4C/	4r	8ee'\
.	.	8dd'\
4r	8G/ 8c/ 8e/L	2cc^\
.	8G/ 8c/ 8e/J	.
4r	4G/ 4c/ 4e/	.
=15	=15	=15
4GG/	4G/ 4B/ 4f/	4g/
4GG/	4G/ 4c/ 4f/	4a/
4GG/	4G/ 4d/ 4f/	4b\
=16	=16	=16
4C/	4G/ 4c/ 4e/	2cc\
4CC/	4r	.
4r	4g/	4r
=17!|:	=17!|:	=17!|:
*>B	*>B	*>B
4C/	(8e\L	2.r
.	8g\)	.
4G\ 4c\ 4e\	(8gg\	.
.	8g\J)	.
4G\ 4c\ 4e\	8ee'\	.
.	8r	.
=18	=18	=18
4GG/	(8f\L	2.r
.	8g\)	.
4G\ 4B\ 4f\	(8ff\	.
.	8g\J)	.
4G\ 4B\ 4f\	8dd'\	.
.	8r	.
=19	=19	=19
4GG/	(8f\L	2.r
.	8g\)	.
4G\ 4B\ 4f\	(8ff\	.
.	8g\)	.
4G\ 4B\ 4f\	(8dd\	.
.	8g\J)	.
=20	=20	=20
*>B1	*>B1	*>B1
4C/	(8e\L	2.r
.	8g\)	.
4G\ 4c\ 4e\	(8ee\	.
.	8g\J)	.
4G\ 4c\ 4e\	8cc\	.
.	8r	.
=21:|!	=21:|!	=21:|!
*>B2	*>B2	*>B2
4c\ 4e\	4cc\	2.r
4C/	4r	.
4r	4r	.
==	==	==
*-	*-	*-
!!!ENC: Craig Stuart Sapp
!!!END: 2004/05/27/
!!!EFL: 085/651
